Assets/TitleBar/MaximizeRestore.svg

<?xml version="1.0" encoding="UTF-8"?>
<svg xmlns="http://www.w3.org/2000/svg" xmlns:xlink="http://www.w3.org/1999/xlink" width="32px" height="3px" viewBox="0 0 3 3" version="1.1">
<g id="surface1">
<path style=" stroke:none;fill-rule:nonzero;fill:rgb(0%,0%,0%);fill-opacity:1;" d="M 0.738281 0.371094 C 0.777344 0.367188 0.8125 0.367188 0.851562 0.367188 C 0.890625 0.367188 0.933594 0.367188 0.972656 0.367188 C 1.015625 0.367188 1.054688 0.367188 1.097656 0.367188 C 1.183594 0.367188 1.273438 0.367188 1.359375 0.367188 C 1.472656 0.367188 1.582031 0.363281 1.695312 0.363281 C 1.800781 0.363281 1.90625 0.363281 2.015625 0.363281 C 2.074219 0.359375 2.074219 0.359375 2.136719 0.359375 C 2.171875 0.359375 2.210938 0.359375 2.25 0.359375 C 2.28125 0.359375 2.3125 0.359375 2.347656 0.359375 C 2.460938 0.378906 2.511719 0.421875 2.59375 0.5 C 2.636719 0.582031 2.628906 0.644531 2.628906 0.738281 C 2.632812 0.792969 2.632812 0.792969 2.632812 0.851562 C 2.632812 0.890625 2.632812 0.933594 2.632812 0.972656 C 2.632812 1.015625 2.632812 1.054688 2.632812 1.097656 C 2.632812 1.183594 2.632812 1.273438 2.632812 1.359375 C 2.632812 1.472656 2.636719 1.582031 2.636719 1.695312 C 2.636719 1.800781 2.636719 1.90625 2.636719 2.015625 C 2.640625 2.054688 2.640625 2.09375 2.640625 2.136719 C 2.640625 2.171875 2.640625 2.210938 2.640625 2.25 C 2.640625 2.28125 2.640625 2.3125 2.640625 2.347656 C 2.621094 2.460938 2.578125 2.511719 2.5 2.59375 C 2.417969 2.636719 2.355469 2.628906 2.261719 2.628906 C 2.222656 2.632812 2.1875 2.632812 2.148438 2.632812 C 2.109375 2.632812 2.066406 2.632812 2.027344 2.632812 C 1.984375 2.632812 1.945312 2.632812 1.902344 2.632812 C 1.816406 2.632812 1.726562 2.632812 1.640625 2.632812 C 1.527344 2.632812 1.417969 2.636719 1.304688 2.636719 C 1.199219 2.636719 1.09375 2.636719 0.984375 2.636719 C 0.925781 2.640625 0.925781 2.640625 0.863281 2.640625 C 0.828125 2.640625 0.789062 2.640625 0.75 2.640625 C 0.71875 2.640625 0.6875 2.640625 0.652344 2.640625 C 0.539062 2.621094 0.488281 2.578125 0.40625 2.5 C 0.363281 2.417969 0.371094 2.355469 0.371094 2.261719 C 0.367188 2.207031 0.367188 2.207031 0.367188 2.148438 C 0.367188 2.109375 0.367188 2.066406 0.367188 2.027344 C 0.367188 1.984375 0.367188 1.945312 0.367188 1.902344 C 0.367188 1.816406 0.367188 1.726562 0.367188 1.640625 C 0.367188 1.527344 0.363281 1.417969 0.363281 1.304688 C 0.363281 1.199219 0.363281 1.09375 0.363281 0.984375 C 0.359375 0.945312 0.359375 0.90625 0.359375 0.863281 C 0.359375 0.828125 0.359375 0.789062 0.359375 0.75 C 0.359375 0.71875 0.359375 0.6875 0.359375 0.652344 C 0.378906 0.539062 0.421875 0.488281 0.5 0.40625 C 0.582031 0.363281 0.644531 0.371094 0.738281 0.371094 Z M 0.59375 0.625 C 0.5625 0.714844 0.558594 0.777344 0.558594 0.871094 C 0.558594 0.902344 0.558594 0.933594 0.558594 0.964844 C 0.558594 0.996094 0.558594 1.03125 0.558594 1.066406 C 0.558594 1.097656 0.558594 1.132812 0.558594 1.167969 C 0.558594 1.242188 0.558594 1.3125 0.558594 1.386719 C 0.558594 1.496094 0.554688 1.609375 0.554688 1.71875 C 0.554688 1.789062 0.554688 1.859375 0.554688 1.929688 C 0.554688 1.964844 0.554688 1.996094 0.554688 2.03125 C 0.554688 2.0625 0.554688 2.09375 0.554688 2.125 C 0.554688 2.152344 0.554688 2.179688 0.554688 2.207031 C 0.5625 2.289062 0.578125 2.339844 0.625 2.40625 C 0.714844 2.4375 0.777344 2.441406 0.871094 2.441406 C 0.902344 2.441406 0.933594 2.441406 0.964844 2.441406 C 0.996094 2.441406 1.03125 2.441406 1.066406 2.441406 C 1.117188 2.441406 1.117188 2.441406 1.167969 2.441406 C 1.242188 2.441406 1.3125 2.441406 1.386719 2.441406 C 1.496094 2.441406 1.609375 2.445312 1.71875 2.445312 C 1.789062 2.445312 1.859375 2.445312 1.929688 2.445312 C 1.980469 2.445312 1.980469 2.445312 2.03125 2.445312 C 2.078125 2.445312 2.078125 2.445312 2.125 2.445312 C 2.152344 2.445312 2.179688 2.445312 2.207031 2.445312 C 2.289062 2.4375 2.339844 2.421875 2.40625 2.375 C 2.4375 2.285156 2.441406 2.222656 2.441406 2.128906 C 2.441406 2.097656 2.441406 2.066406 2.441406 2.035156 C 2.441406 2.003906 2.441406 1.96875 2.441406 1.933594 C 2.441406 1.902344 2.441406 1.867188 2.441406 1.832031 C 2.441406 1.757812 2.441406 1.6875 2.441406 1.613281 C 2.441406 1.503906 2.445312 1.390625 2.445312 1.28125 C 2.445312 1.210938 2.445312 1.140625 2.445312 1.070312 C 2.445312 1.035156 2.445312 1.003906 2.445312 0.96875 C 2.445312 0.921875 2.445312 0.921875 2.445312 0.875 C 2.445312 0.847656 2.445312 0.820312 2.445312 0.792969 C 2.4375 0.710938 2.421875 0.660156 2.375 0.59375 C 2.285156 0.5625 2.222656 0.558594 2.128906 0.558594 C 2.097656 0.558594 2.066406 0.558594 2.035156 0.558594 C 2.003906 0.558594 1.96875 0.558594 1.933594 0.558594 C 1.882812 0.558594 1.882812 0.558594 1.832031 0.558594 C 1.757812 0.558594 1.6875 0.558594 1.613281 0.558594 C 1.503906 0.558594 1.390625 0.554688 1.28125 0.554688 C 1.210938 0.554688 1.140625 0.554688 1.070312 0.554688 C 1.019531 0.554688 1.019531 0.554688 0.96875 0.554688 C 0.921875 0.554688 0.921875 0.554688 0.875 0.554688 C 0.847656 0.554688 0.820312 0.554688 0.792969 0.554688 C 0.710938 0.5625 0.660156 0.578125 0.59375 0.625 Z M 0.59375 0.625 "/>
<path style=" stroke:none;fill-rule:nonzero;fill:rgb(0%,0%,0%);fill-opacity:1;" d="M 0.875 1.9375 C 1.289062 1.9375 1.699219 1.9375 2.125 1.9375 C 2.15625 2.0625 2.15625 2.0625 2.125 2.125 C 1.710938 2.125 1.300781 2.125 0.875 2.125 C 0.84375 2 0.84375 2 0.875 1.9375 Z M 0.875 1.9375 "/>
</g>
</svg>

<svg xmlns="http://www.w3.org/2000/svg" width="32" height="3" viewBox="0 0 3 3"><path d="M.738.371C.778.367.813.367.852.367h.507c.114 0 .223-.004.336-.004h.32c.06-.004.06-.004.122-.004h.211c.113.02.164.063.246.141.043.082.035.145.035.238.004.055.004.055.004.114v.507c0 .114.004.223.004.336v.32q.005.059.004.122v.211c-.02.113-.063.164-.141.246-.082.043-.145.035-.238.035-.04.004-.075.004-.114.004h-.507c-.114 0-.223.004-.336.004h-.32c-.06.004-.06.004-.122.004H.652C.54 2.62.488 2.578.406 2.5c-.043-.082-.035-.145-.035-.238-.004-.055-.004-.055-.004-.114v-.507c0-.114-.004-.223-.004-.336v-.32Q.358.925.36.862v-.21C.38.54.422.488.5.406.582.363.645.371.738.371M.594.625a.7.7 0 0 0-.035.246v.516c0 .11-.004.222-.004.332v.488a.36.36 0 0 0 .07.2.7.7 0 0 0 .246.034h.516l.332.004h.488a.36.36 0 0 0 .2-.07.7.7 0 0 0 .034-.246v-.516l.004-.332V.793a.36.36 0 0 0-.07-.2.7.7 0 0 0-.246-.034h-.516c-.11 0-.222-.004-.332-.004H.793a.36.36 0 0 0-.2.07m0 0"/><path d="M.875 1.938h1.25c.031.125.031.125 0 .187H.875C.844 2 .844 2 .875 1.938m0 0"/></svg>
